src/actions/22/text_remove_kerns.svg

<svg xmlns="http://www.w3.org/2000/svg" xmlns:inkscape="http://www.inkscape.org/namespaces/inkscape" viewBox="0 0 22 22">
  <defs id="defs3051">
    <style type="text/css" id="current-color-scheme">
      .ColorScheme-Text {
        color:#2e3440;
      }
      </style>
  </defs>
  <path
     style="fill:currentColor;fill-opacity:1;stroke:none"
     d="M 2 4 C 2 4 6.1338219 18.01731 6.1386719 18 C 6.1495449 18.0068 6.4919426 18.002 6.7480469 18 C 6.9105746 17.9987 6.9468692 18.0013 7.1347656 18 C 7.5008692 18.0032 7.9500335 18.0092 7.9648438 18 C 7.9698437 18.0173 12.103516 4 12.103516 4 L 11 4 L 7.2792969 16 L 6.8164062 16 C 6.8164062 16 3.1028803 3.9995973 3.1035156 4 L 2 4 z M 13.378906 4 L 9.0429688 17.863281 L 9 18 L 10.136719 18 L 11.701172 13 L 16.5625 13 L 16.882812 13 L 18.044922 13 L 14.527344 4 L 13.378906 4 z M 13.888672 6 L 14.146484 6 L 16.492188 12 L 12.011719 12 L 13.888672 6 z "
     class="ColorScheme-Text"
     id="path6" />
  <path
     inkscape:connector-curvature="0"
     style="fill:#bf616a;fill-opacity:1;stroke:none"
     d="M 14.99023,14 14,14.9902 16.00976,17 14,19.0098 14.99023,20 17,17.9902 19.00976,20 20,19.0098 17.99023,17 20,14.9902 19.00976,14 17,16.0098 14.99023,14 Z"
     id="rect4126" />
</svg>

<svg viewBox="0 0 22 22" xmlns="http://www.w3.org/2000/svg">
 <defs>
  <style type="text/css">.ColorScheme-Text {
        color:#2e3440;
      }</style>
 </defs>
 <path class="ColorScheme-Text" d="m2 4s4.1338 14.017 4.1387 14c0.010873 0.0068 0.35327 2e-3 0.60938 0 0.16253-0.0013 0.19882 0.0013 0.38672 0 0.3661 0.0032 0.81527 0.0092 0.83008 0 0.0049999 0.0173 4.1387-14 4.1387-14h-1.1035l-3.7207 12h-0.46289s-3.7135-12-3.7129-12h-1.1035zm11.379 0-4.3359 13.863-0.042969 0.13672h1.1367l1.5645-5h4.8613 0.32031 1.1621l-3.5176-9h-1.1484zm0.50977 2h0.25781l2.3457 6h-4.4805l1.877-6z" fill="currentColor"/>
 <path d="M 14.99023,14 14,14.9902 16.00976,17 14,19.0098 14.99023,20 17,17.9902 19.00976,20 20,19.0098 17.99023,17 20,14.9902 19.00976,14 17,16.0098 14.99023,14 Z" fill="#bf616a"/>
</svg>
